X:346
T:Highland Soldier
D:Wick S.C.D., By the Peat Fire (n.d.)
O:Scotland
Z:Nigel Gatherer
L:1/8
M:4/4
K:D
e2|A>AAe dBAB|G>ABG g2 ef/g/|a2 ge edBA|G2 G>A B2 AG|
A>AAe dBAB|G>ABG g2 ef/g/|a2 ge dBgB|A2 A>B A2||
ef|g>fga gfed|e>fge a2 ef|g>fga efgd|B>c d/c/B/A/ G3 e|
A>AAe dBAB|G>ABG g2 ef/g/|a2 ge dBgB|A2 A>B A2||
<end>
<start>
